X:558
T: Fuchouge
N: C1977
O: China, Guangdong Qiongshan
S: II, 385, 2)]
R: Xiaodiao]
M: 2/4
L: 1/16
K: C
e2edc2c2 | e2e2d4 |
c2c2A2G2 | G2A2G4 |
c2cAd4 | d2dcA2A2 | c2A2d4 |
A2dAG2G2 | G2A2G4

